symbols/web/high_quality/materialsymbolssharp/high_quality_wght600fill1_48px.svg

<svg xmlns="http://www.w3.org/2000/svg" height="48" width="48"><path d="M12.15 30.15h2.5V25.7h5v4.45h2.5v-12.3h-2.5v5.35h-5v-5.35h-2.5Zm17.5 3.25h2.5v-3.25h3.75v-12.3h-10v12.3h3.75Zm-1.25-5.75v-7.3h5v7.3ZM3.3 40.7V7.25h41.45V40.7Z"/></svg>

<svg xmlns="http://www.w3.org/2000/svg" height="48" width="48"><path d="M12.15 30.15H14.65V25.7H19.65V30.15H22.15V17.85H19.65V23.2H14.65V17.85H12.15ZM29.65 33.4H32.15V30.15H35.9V17.85H25.9V30.15H29.65ZM28.4 27.65V20.35H33.4V27.65ZM3.3 40.7V7.25H44.75V40.7Z"/></svg>
